X:94
T:Sous ta fenetre
C:Trad 1, 69
M:3/4
L:1/4
K:C
A2B|cAc|e2c|A2e|fed|c2c|BcB|A3-|A3|\
ABc|d2d|d2e|d2d|
Bcd|e2f|edc|B3-|B2E|\
A2B|cAc|e2c|A2e|fed|c2c|BcB|A3-|A2E:|
